X:1
T:Farmors Brudpolska
R:polska K1
H:efter Gyris Anders
A:Dalarna
Z:hn-k1-1
M:3/4
L:1/8
K:Dm
A2 A^c A^c | A2 A^c A^c | e2 g/a/g/e/ fg | fe d>^c de |
f2 f/a/f/d/ e^c | A2 A^c A^c | A2 A^c A^c | e2 g/a/g/e/ fg |
fe d>^c de | f2 f/a/f/d/ e^c | S^c2 d4 :||: a2 a=b ag |
e2 g/a/g/e/ fg | a2 ac' ag | e2 g/a/g/e/ fg | fe d>^c de |
f2 f/a/f/d/ e^c | A2 A^c A^c | A2 A^c A^c | e2 g/a/g/e/ fg |
fe d>^c de | f2 f/a/f/d/ e^c | S^c2 d4 :| 
<end>
<start>
